X: 8
T:Captain Webb
M:6/8
L:1/8
Q:105
S:from Michael Blanford
Z:Bill Johnsto
K:G
A| B2 B BcB| B2 A A2 B| c2 c cdc| (B3 B2) c| d2 d ed^c| d2 B G2 A| B2 B
BA^G| (A3A) GA| B2 B B2 c| B2 A A3| d2 d d2 e |d3 c3| BAB c2 B| A2 G E2
G| DGA B2 G| A3 G3 :||:e^d=d c3| e^d=d cd^d |e^d=d c2 G| A3 c3 | BAB c2
B| A2 G E2 G| DGA B2G| A3 G3 :||
